X: 821
T: Gerdâniye Seyir
C: Şefik Gürmeriç
O: Turkey
F: http://compmusic.upf.edu/node/140
N: gerdaniye--seyir--sofyan--1--sefik_gurmeric
N: makam= gerdaniye
N: form= seyir
N: usul= sofyan = 4/4
M: 4/4
L: 1/16
K: C _2/4B ^3/4f  
Q: 1/4=60
%%MIDI tuningsystem comma53
g6f2 e4 f4  | g2a2 g2f2 g8  | z4 f2g2 a4 _1/4b2a2  | \
w:   |   |   | 
a2g2 g2f2 f3e d4  | 
w:   | 
z4 e2f2 g4 a4  | b4 a2g2 c'4 b2a2  | \
w:   |   | 
a3g f2g2 f2g2 a2g2  | g6d2 e2f2 g4  | 
w:   |   | 
z4 f2g2 a4 c'2b2  | a2g4f2 g3f e4  | \
w:   |   | 
z4 f2e2 f4 g4  | a2g2 f2e2 d2^c2 d4  | 
w:   |   | 
z4 g2=f2 f2e2 e2d2  | dcde d2c2 B3A G4  | \
w:   |   | 
z4 d2e2 d2c4B2  | 
w:   | 
B2A2 AcBA A8  | |


